X: 28
T:AN DRO APPLE
M:4/4
L:1/4
Q:1/4=100
C:Yves BELOTTEAU
K:G
|:DG/2A/2B3/2c/2|BAG2|ded3/2e/2|dcB2:|!
|:gfe2|dc/2B/2c3/2B/2|ABc3/2d/2|edB2:|!
